local/share/icons/dracula-icons-main/symbolic/actions/align-horizontal-center-symbolic.svg

<?xml version="1.0" encoding="UTF-8"?>
<svg xmlns="http://www.w3.org/2000/svg" xmlns:xlink="http://www.w3.org/1999/xlink" width="16" height="16" viewBox="0 0 16 16">
<defs>
<filter id="filter-remove-color" x="0%" y="0%" width="100%" height="100%">
<feColorMatrix color-interpolation-filters="sRGB" values="0 0 0 0 1 0 0 0 0 1 0 0 0 0 1 0 0 0 1 0" />
</filter>
<mask id="mask-0">
<g filter="url(#filter-remove-color)">
<rect x="-1.6" y="-1.6" width="19.2" height="19.2" fill="rgb(0%, 0%, 0%)" fill-opacity="0.1"/>
</g>
</mask>
<clipPath id="clip-0">
<rect x="0" y="0" width="5" height="5"/>
</clipPath>
<g id="source-8442" clip-path="url(#clip-0)">
<path fill-rule="nonzero" fill="rgb(21.176471%, 21.176471%, 21.176471%)" fill-opacity="0.931" d="M 1.058594 0.53125 L 1.058594 2.117188 L 3.175781 2.117188 L 3.175781 0.527344 L 1.058594 0.527344 Z M 0.53125 2.378906 L 0.53125 3.96875 L 3.703125 3.96875 L 3.703125 2.378906 Z M 0.53125 2.378906 "/>
</g>
</defs>
<path fill-rule="nonzero" fill="rgb(21.176471%, 21.176471%, 21.176471%)" fill-opacity="1" d="M 1.851562 0 L 1.851562 0.660156 L 2.382812 0.660156 L 2.382812 0 Z M 0.925781 0.53125 C 0.855469 0.53125 0.796875 0.585938 0.792969 0.660156 L 0.792969 1.984375 C 0.792969 2.058594 0.851562 2.117188 0.925781 2.117188 L 1.625 2.117188 C 1.601562 2.074219 1.589844 2.03125 1.589844 1.984375 L 1.589844 1.851562 L 1.058594 1.851562 L 1.058594 0.792969 L 1.625 0.792969 C 1.601562 0.753906 1.589844 0.707031 1.589844 0.660156 L 1.589844 0.527344 L 0.925781 0.527344 Z M 2.644531 0.53125 L 2.644531 0.660156 C 2.644531 0.707031 2.632812 0.753906 2.609375 0.792969 L 3.175781 0.792969 L 3.175781 1.851562 L 2.644531 1.851562 L 2.644531 1.984375 C 2.644531 2.03125 2.632812 2.078125 2.609375 2.117188 L 3.308594 2.117188 C 3.34375 2.117188 3.375 2.101562 3.402344 2.078125 C 3.425781 2.054688 3.441406 2.019531 3.441406 1.984375 L 3.441406 0.660156 C 3.4375 0.589844 3.378906 0.53125 3.308594 0.53125 Z M 1.851562 1.191406 L 1.851562 1.984375 L 2.382812 1.984375 L 2.382812 1.191406 Z M 0.398438 2.382812 C 0.363281 2.382812 0.328125 2.394531 0.304688 2.421875 C 0.277344 2.445312 0.265625 2.480469 0.265625 2.515625 L 0.265625 3.835938 C 0.265625 3.910156 0.324219 3.96875 0.398438 3.96875 L 1.589844 3.96875 L 1.589844 3.835938 C 1.589844 3.789062 1.601562 3.746094 1.621094 3.703125 L 0.53125 3.703125 L 0.53125 2.644531 L 1.589844 2.644531 L 1.589844 2.515625 C 1.589844 2.46875 1.601562 2.421875 1.625 2.382812 Z M 2.609375 2.382812 C 2.632812 2.421875 2.644531 2.46875 2.644531 2.515625 L 2.644531 2.648438 L 3.703125 2.648438 L 3.703125 3.703125 L 2.609375 3.703125 C 2.632812 3.746094 2.644531 3.789062 2.644531 3.835938 L 2.644531 3.96875 L 3.835938 3.96875 C 3.871094 3.96875 3.90625 3.957031 3.929688 3.929688 C 3.957031 3.90625 3.96875 3.871094 3.96875 3.835938 L 3.96875 2.515625 C 3.96875 2.480469 3.957031 2.445312 3.929688 2.417969 C 3.90625 2.394531 3.871094 2.378906 3.835938 2.382812 Z M 1.851562 2.515625 L 1.851562 3.308594 L 2.382812 3.308594 L 2.382812 2.515625 Z M 1.851562 3.835938 L 1.851562 4.234375 L 2.382812 4.234375 L 2.382812 3.835938 Z M 1.851562 3.835938 "/>
<g mask="url(#mask-0)">
<use xlink:href="#source-8442"/>
</g>
</svg>

<svg xmlns="http://www.w3.org/2000/svg" width="16" height="16" viewBox="0 0 4.233 4.233"><path d="M1.852 0v.661h.53V0h-.53zM.926.53A.132.132 0 0 0 .794.66v1.323c0 .074.059.133.132.133h.698a.265.265 0 0 1-.036-.133v-.132h-.53V.794h.566a.265.265 0 0 1-.036-.132V.529H.926zm1.718 0v.132a.265.265 0 0 1-.035.132h.566v1.058h-.53v.132a.265.265 0 0 1-.037.133h.7a.132.132 0 0 0 .132-.133V.661A.132.132 0 0 0 3.307.53h-.663zm-.792.66v.794h.53v-.793h-.53zM.397 2.382a.132.132 0 0 0-.132.133v1.322c0 .074.059.133.132.133h1.191v-.133a.265.265 0 0 1 .035-.132H.53V2.646h1.059v-.132a.265.265 0 0 1 .036-.133H.397zm2.211 0a.265.265 0 0 1 .036.133v.132h1.06v1.058H2.61a.265.265 0 0 1 .035.132v.133h1.192a.132.132 0 0 0 .133-.133V2.514a.132.132 0 0 0-.133-.133H2.608zm-.756.133v.793h.53v-.793h-.53zm0 1.322v.397h.53v-.397h-.53z" style="marker:none" fill="#363636"/><path d="M1.058.53v1.587h2.117V.529H1.058zM.53 2.38V3.97h3.175V2.38H.53z" opacity=".1" fill="#363636" fill-opacity=".931"/></svg>
